X:9
T:GB/7c/9B Come All You Jolly Ploughboys-0
%%VWML:GB-7c-9B-0
F:http://www.vwml.org/record/GB/7c/9B
T:Version 3 of 4
C:Mr. Harwood (c. 50) Watersfield, Pulborough, VII. 07
C:Transcribed by Simon Furey and Lewis Jones
L:1/4
M:3/4
I:linebreak $
K:Bb
B | B B F | B2 F | G/A/B/A/ G | F2 B | c d e | f e d/B/ | c2 B |$ c3/2 d/ e/c/ | f c/d/ e | d B c | (3G/A/G/ !fermata!F F | B d f | e d/B/ (3c/d/c/ | B2 |]

